logos/stately-icon.svg

<?xml version="1.0" encoding="UTF-8"?>
<svg width="256px" height="306px" viewBox="0 0 256 306" version="1.1" xmlns="http://www.w3.org/2000/svg" preserveAspectRatio="xMidYMid">
    <title>Stately</title>
    <g>
        <path d="M83.60475,0.0445842031 L252.705211,169.14537 C254.657598,171.219104 256,174.147685 256,177.320043 C256,180.857526 254.413821,184.029885 251.851448,186.103619 L136.433077,301.52199 C131.675622,306.280528 123.988504,306.280528 119.23105,301.52199 L3.56868376,185.859841 C-1.18956125,181.101304 -1.18956125,173.415269 3.56868376,168.656731 L74.8203076,97.283002 L82.7507702,105.213898 L84.412842,106.850269 C95.7320476,118.657458 111.114378,148.055027 87.874974,172.805283 C85.434815,175.245226 85.434815,179.02757 87.874974,181.467512 L123.500949,217.216133 C125.940891,219.656076 129.723235,219.656076 132.163178,217.216133 L167.789369,181.589942 C168.886909,180.491318 169.740672,178.905139 169.740672,177.197613 C169.740672,175.611434 169.00934,174.025254 167.910715,172.927714 L137.409269,142.426268 L137.5317,142.303838 L83.7267471,88.4994264 C59.3254823,63.9758395 59.0814881,24.5678461 83.60475,0.0445842031 Z M154.651383,9.18374993 C166.8966,-3.06124998 186.749844,-3.06124998 198.99506,9.18374993 C211.239194,21.4287498 211.239194,41.2817759 198.99506,53.5267758 C186.749844,65.7717757 166.8966,65.7717757 154.651383,53.5267758 C142.406167,41.2817759 142.406167,21.4287498 154.651383,9.18374993 Z" fill="#000000"></path>
    </g>
</svg>

<svg preserveAspectRatio="xMidYMid" viewBox="0 0 256 306" xmlns="http://www.w3.org/2000/svg">
  <path d="m83.605.045 169.1 169.1c1.953 2.074 3.295 5.003 3.295 8.175 0 3.538-1.586 6.71-4.149 8.784L136.433 301.522a12.149 12.149 0 0 1-17.202 0L3.569 185.86a12.15 12.15 0 0 1 0-17.203L74.82 97.283l7.93 7.93 1.663 1.637c11.319 11.807 26.701 41.205 3.462 65.955-2.44 2.44-2.44 6.223 0 8.663l35.626 35.748c2.44 2.44 6.222 2.44 8.662 0l35.626-35.626c1.098-1.099 1.952-2.685 1.952-4.392 0-1.587-.732-3.173-1.83-4.27l-30.502-30.502.123-.122-53.805-53.805C59.325 63.976 59.08 24.568 83.605.045Zm71.046 9.139c12.246-12.245 32.099-12.245 44.344 0 12.244 12.245 12.244 32.098 0 44.343-12.245 12.245-32.098 12.245-44.344 0-12.245-12.245-12.245-32.098 0-44.343Z"/>
</svg>
